X:111
T:Girl with the Blue Dress on
R:polka 32
Z:Lewes
M:4/4
L:1/8
Q:1/4=180
K:G
|:Bc|d2Bd c2Ac|B2G2 GFGB|A2F2 FEF2|A2GF G2Bc|
d2Bd c2Ac|B2G2 GFGB|A2F2 FEFG|A2GF G2:|
|:z|G2Bd g3f|f2e2 e3d|F2Ad f3e|e2d2 dcBA|
G2Bd g3f|f2e2 e3g|fga2 e2f2|g4 g2:|]

